layouts/partials/icons/exclamation.svg

<svg width="24" height="24" viewBox="0 0 24 24" fill="none" xmlns="http://www.w3.org/2000/svg">
<path d="M12 9V11M12 15H12.01M5.07183 19H18.9282C20.4678 19 21.4301 17.3333 20.6603 16L13.7321 4C12.9623 2.66667 11.0378 2.66667 10.268 4L3.33978 16C2.56998 17.3333 3.53223 19 5.07183 19Z" stroke="#4A5568" stroke-width="2" stroke-linecap="round" stroke-linejoin="round"/>
</svg>

<svg xmlns="http://www.w3.org/2000/svg" class="h-6 w-6" fill="none" viewBox="0 0 24 24" stroke="currentColor">
  <path stroke-linecap="round" stroke-linejoin="round" stroke-width="2" d="M12 9v2m0 4h.01m-6.938 4h13.856c1.54 0 2.502-1.667 1.732-3L13.732 4c-.77-1.333-2.694-1.333-3.464 0L3.34 16c-.77 1.333.192 3 1.732 3z" />
</svg>
